X:1
T:The City of Gold
T:The City of Gold
T:Thomas Miles Bowdish, 1906
T:Frances Jane (Fanny) Crosby, 1875
T:Public Domain Courtesy of the Cyber Hymnal™
T:Public Domain Courtesy of the Cyber Hymnal™
C:Thomas Miles Bowdish, 1906
Z:Public Domain
Z:Courtesy of the Cyber Hymnal™
%%score 1 ( 2 3 )
L:1/8
Q:1/4=100
M:4/4
K:Bb
V:1 treble 
V:2 bass 
V:3 bass 
V:1
 [DF]>[DF] | [DF]2 [B,D][DF] [DB]2 [Fd]>[Fc] | [GB]2 [EG][FA] [GB]2 [GB]>[EG] | %3
w: 1.~There’s a|ci- ty that looks o’er the|val- ley of death, And its|
w: 2.~There the|King, our Re- deem- er, the|Lord whom we love, Will the|
w: 3.~Ev- ery|soul we have led to the|foot of the cross, Ev- ery|
w: 4.~There all|sick- ness, and sor- row, and|death are un- known, There shall|
 [DF]2 [B,D][DF] [FB]2 [Fc]>[Fd] | [Fc]6 [EF]>[EG] | [DF]2 [B,D][DF] [DB]2 [Fd]>[Fc] | %6
w: glo- ries may ne- ver be|told; There the|sun ne- ver sets, and the|
w: faith- ful with rap- ture be-|hold; There the|right- eous for- ev- er will|
w: one we have brought to the|fold, Will be|kept as bright jew- els our|
w: glor- ies on glor- ies un-|fold; There the|Lamb is the light in the|
 [GB]2 [EG][FA] [GB]2 [^CA]>[CG] | [DF]2 [B,D][DF] [DB]2 [FA]>[Ec] | [DB]6 ||"^Refrain" [Fd]>[Ec] | %10
w: leaves ne- ver fade, In that|beau- ti- ful ci- ty of|gold.||
w: shine like the stars, In that|beau- ti- ful ci- ty of|gold.|There the|
w: crown to a- dorn, In that|beau- ti- ful ci- ty of|gold.||
w: midst of the throne, In that|beau- ti- ful ci- ty of|gold.||
 [DB]6 [B,D][CE] | [DF]6 [DB]>[Ec] | [Fd]6 [Fc][FB] | [Fc]6 [DF]>[EF] | %14
w: ||||
w: sun ne- ver|sets, And the|leaves ne- ver|fade, There the|
w: ||||
w: ||||
 [DF]2 [B,D][DF] [DB]2 [Fd]>[Fc] | [GB]2 [EG][FA] [GB]2 [^CA]>[CG] | %16
w: ||
w: right- eous for- ev- er shall|shine like the stars, In that|
w: ||
w: ||
 [DF]2 [B,D][DF] [DB]2 [FA]>[Ec] | [DB]6 |] %18
w: ||
w: beau- ti- ful ci- ty of|gold.|
w: ||
w: ||
V:2
 [B,,B,]>[B,,B,] | [B,,B,]2 [B,,F,][B,,B,] [B,,B,]2 [B,,B,]>[D,B,] | %2
w: ~ ~|~ ~ ~ ~ ~ ~|
 [E,B,]2 [E,B,][E,B,] [E,E]2 [E,E]>[E,B,] | [B,,B,]2 [B,,F,][B,,B,] [D,B,]2 [C,A,]>[B,,B,] | %4
w: ~ ~ ~ ~ ~ ~|~ ~ ~ ~ ~ ~|
 [F,A,]6 [F,A,]>[F,A,] | [B,,B,]2 [B,,F,][B,,B,] [B,,B,]2 [B,,B,]>[D,B,] | %6
w: ~ ~ ~|~ ~ ~ ~ ~ ~|
 [E,B,]2 [E,B,][E,B,] [E,E]2 [=E,B,]>[E,B,] | [F,B,]2 F,[F,B,] [F,B,]2 [F,C]>[F,A,] | [B,,B,]6 || %9
w: ~ ~ ~ ~ ~ ~|~ ~ ~ ~ ~ ~|~|
 z2 | z2 [B,,F,]>[B,,F,] [B,,F,]2 z2 | z2 [B,,B,]>[B,,B,] [B,,B,]2 z2 | %12
w: |There the sun|ne- ver sets|
 z2 [D,B,]>[F,B,] B,2 [A,C][G,C] | A,6 [D,B,]>[C,A,] | %14
w: And the leaves ne- ver|fade, ne- ver|
 [B,,B,]2 [B,,F,][B,,B,] [B,,B,]2 [B,,B,]>[D,B,] | [E,B,]2 [E,B,][E,B,] [E,E]2 [=E,B,]>[E,B,] | %16
w: fade, * * * * *||
 [F,B,]2 F,[F,B,] [F,B,]2 [F,C]>[F,A,] | [B,,B,]6 |] %18
w: ||
V:3
 x2 | x8 | x8 | x8 | x8 | x8 | x8 | x2 F, x5 | x6 || x2 | x8 | x8 | x4 B,2 x2 | %13
 F,2 A,>G, (F,E,) x2 | x8 | x8 | x2 F, x5 | x6 |] %18

